!!!OTL: Harter Entschluss.
!!!ARE: Europa, Mitteleuropa, Deutschland
!!!SCT: A0117
!!!TXL: @@GMH
!!!YEM: Copyright 1995, estate of Helmut Schaffrath.
**kern	**text
!! Mixed meters:  4/2; 6/2
*M4/2	*
*met(c|)	*
*clefC4	*
*k[b-]	*
*F:ion	*
!LO:TX:a:t=jon.	!
{1F	Jch
=1	=1
2F	hört
2A/	ein
2G	frew-
2F	-lein
=2	=2
1E	kla-
2F}	-gen,
{2G	für-
=3	=3
*M6/2	*
1A	-war
2A	ein
2B-	weyb-
1G	-lich
=4	=4
*M4/2	*
1F}	bild,}
{1F	Jr
=5	=5
2F	hertʒ
2A/	wolt
2G	ir
2F	ver-
=6	=6
1E	-ʒa-
2F}	-gen
{2G	gegn
=7	=7
*M6/2	*
1A	ei-
2A	-nen
2B-	jüng-
1G	-ling
=8	=8
*M4/2	*
1F}	mild.}
{2r	.
2F	Das
=9	=9
2A	frew-
2G	-lien
2A	ſprach
2B-	mit
=10	=10
1c	li-
2F}	-ſten,
{2B-	er
=11	=11
2A	ligt
2A	mir
2A	an
*lig	*
4G	den
4F	.
*Xlig	*
=12	=12
1E	brü-
2F}	-ſten,
{2G	der
=13	=13
*M6/2	*
*lig	*
2A	al-
2B-	.
*Xlig	*
2c	-ler-
2A	-lieb-
1G	-ſte
=14	=14
0./llF}	mein.
==	==
!!!GTL: Tage- oder Wächterlieder
!!!AGN: Romanze, Ballade, Lied
!! Forster III. 1549 No. 61.
!!!ONB: ESAC (Essen Associative Code) Database: ALTDEU
!!!AMT: irregular
!!!AIN: vox
!!!EED: Helmut Schaffrath
!!!EEV: 1.0
!!!RDF**kern: i = editorial accidental
!!!RDF**kern: l = terminal long
!!!AMD: Ionian
!!!URL-scan: https://rosdok.uni-rostock.de/mcrviewer/recordIdentifier/rosdok_ppn738218359/iview2/phys_0289.iview2?x=-425.8853427895981&y=1214.5309692728333&scale=0.4823261117445838&rotation=0&layout=singlePageLayout&logicalDiv=log_0008
!!!ENC: Anna Maria Matuszewska
!!!EEV: 2024/23/02
*-	*-
